src/assets/svg/workshops.svg

<?xml version="1.0" encoding="UTF-8"?>
<svg width="24px" height="24px" viewBox="0 0 24 24" version="1.1" xmlns="http://www.w3.org/2000/svg" xmlns:xlink="http://www.w3.org/1999/xlink">
    <title>d66b8f3f-f4ad-4e04-a1e1-112aadfd09cf@1.00x</title>
    <g id="Iconography" stroke="none" stroke-width="1" fill="none" fill-rule="evenodd">
        <g id="1.-Primitives/Icons/1.-Foreground-Primary/Workshops" fill="#173145">
            <path d="M7,13 C7.55228475,13 8,13.4477153 8,14 C8,14.5128358 7.61395981,14.9355072 7.11662113,14.9932723 L7,15 L3.524,14.9999477 L6.34728395,17.6530704 C8.28911431,19.5958742 11.0919006,20.4065831 13.7710291,19.8003964 C16.4501576,19.1942098 18.6309447,17.2559045 19.5472839,14.6664038 C19.7315241,14.1457561 20.3029485,13.8730438 20.8235962,14.0572839 C21.3442439,14.2415241 21.6169562,14.8129485 21.4327161,15.3335962 C20.287292,18.5704722 17.5613081,20.9933537 14.2123975,21.7510871 C10.9681403,22.4851412 7.57882073,21.5570413 5.1838522,19.310286 L4.95522341,19.0887531 L2,16.3109477 L2,20 C2,20.5128358 1.61395981,20.9355072 1.11662113,20.9932723 L1,21 C0.487164161,21 0.0644928393,20.6139598 0.00672773133,20.1166211 L2.23820962e-13,20 L2.23820962e-13,14 L0.00224364449,13.9324778 L0.00224364449,13.9324778 L0.0169562535,13.8159573 L0.0169562535,13.8159573 L0.0379425666,13.7263736 L0.0379425666,13.7263736 L0.0639721286,13.6473054 L0.0639721286,13.6473054 L0.111408187,13.5408478 L0.111408187,13.5408478 L0.137838762,13.4929369 L0.137838762,13.4929369 L0.195580943,13.4057751 L0.195580943,13.4057751 L0.228785108,13.3633751 L0.228785108,13.3633751 L0.271246936,13.3152234 C0.298160499,13.2868213 0.323393053,13.2628309 0.349820364,13.2401953 L0.271246936,13.3152234 C0.30150227,13.2830251 0.333387472,13.2532766 0.366654201,13.2259857 C0.425579693,13.1777588 0.490628427,13.1357753 0.560225328,13.1016412 L0.666647434,13.0569087 L0.666647434,13.0569087 L0.824104585,13.0155287 L0.824104585,13.0155287 L0.925361602,13.0027834 L0.925361602,13.0027834 L1,13 L7,13 Z M18.8161478,4.68971402 L19.0447766,4.91124694 L22,7.68894767 L22,4 C22,3.48716416 22.3860402,3.06449284 22.8833789,3.00672773 L23,3 C23.5128358,3 23.9355072,3.38604019 23.9932723,3.88337887 L24,4 L23.9977564,10.0675222 L23.9977564,10.0675222 L23.987262,10.1597668 L23.987262,10.1597668 L23.9703822,10.2425507 L23.9703822,10.2425507 L23.9364138,10.3516692 L23.9364138,10.3516692 L23.8885918,10.4591522 L23.8885918,10.4591522 L23.8421996,10.5394058 L23.8421996,10.5394058 L23.7997157,10.6005236 L23.7997157,10.6005236 L23.7287531,10.6847766 L23.7287531,10.6847766 C23.7018395,10.7131787 23.6766069,10.7371691 23.6501796,10.7598047 L23.7287531,10.6847766 C23.6984977,10.7169749 23.6666125,10.7467234 23.6333458,10.7740143 C23.5863792,10.8124319 23.535356,10.8470326 23.4812847,10.8767769 L23.426705,10.9046739 L23.426705,10.9046739 L23.3333526,10.9430913 L23.3333526,10.9430913 L23.216554,10.9764892 L23.216554,10.9764892 L23.077203,10.997022 L23.077203,10.997022 L23,11 L17,11 C16.4477153,11 16,10.5522847 16,10 C16,9.48716416 16.3860402,9.06449284 16.8833789,9.00672773 L17,9 L20.476,8.99994767 L17.6527161,6.34692957 C15.7108857,4.40412578 12.9080994,3.59341693 10.2289709,4.19960358 C7.54984242,4.80579023 5.36905528,6.74409548 4.45271605,9.33359624 C4.26847594,9.85424393 3.69705146,10.1269562 3.17640376,9.94271605 C2.65575607,9.75847594 2.38304384,9.18705146 2.56728395,8.66640376 C3.71270799,5.42952783 6.43869191,3.00664626 9.78760253,2.24891295 C13.0318597,1.5148588 16.4211793,2.44295867 18.8161478,4.68971402 Z" id="Shape"></path>
        </g>
    </g>
</svg>

<svg width="24" height="24" xmlns="http://www.w3.org/2000/svg"><path d="M7 13a1 1 0 01.117 1.993L7 15H3.524l2.823 2.653a8 8 0 0013.2-2.987 1 1 0 011.886.668 10 10 0 01-7.22 6.417 9.99 9.99 0 01-9.03-2.44l-.228-.222L2 16.31V20a1 1 0 01-.883.993L1 21a1 1 0 01-.993-.883L0 20v-6l.002-.068.015-.116.02-.09.027-.079.047-.106.027-.048.058-.087.033-.043.042-.048c.027-.028.052-.052.079-.075l-.079.075a1.01 1.01 0 01.29-.213l.106-.045.157-.041.101-.013L1 13h6zm11.816-8.31l.229.221L22 7.69V4a1 1 0 01.883-.993L23 3a1 1 0 01.993.883L24 4l-.002 6.068-.01.092-.018.083-.034.109-.047.107-.047.08-.042.062-.071.084a1.026 1.026 0 01-.079.075l.079-.075a1.01 1.01 0 01-.248.192l-.054.028-.094.038-.116.033-.14.021L23 11h-6a1 1 0 01-.117-1.993L17 9h3.476l-2.823-2.653a8 8 0 00-13.2 2.987 1 1 0 11-1.886-.668 10 10 0 017.22-6.417 9.99 9.99 0 019.03 2.44z" /></svg>
